Numix-GalliumOS/16/categories/applications-puzzles.svg

<?xml version="1.0" encoding="UTF-8" standalone="no"?>
<svg
   xmlns:dc="http://purl.org/dc/elements/1.1/"
   xmlns:cc="http://creativecommons.org/ns#"
   xmlns:rdf="http://www.w3.org/1999/02/22-rdf-syntax-ns#"
   xmlns:svg="http://www.w3.org/2000/svg"
   xmlns="http://www.w3.org/2000/svg"
   xmlns:sodipodi="http://sodipodi.sourceforge.net/DTD/sodipodi-0.dtd"
   xmlns:inkscape="http://www.inkscape.org/namespaces/inkscape"
   width="16"
   height="16"
   viewBox="0 0 12.8 12.8"
   id="svg2"
   version="1.1"
   inkscape:version="0.91 r"
   sodipodi:docname="applications-puzzles.svg">
  <metadata
     id="metadata10">
    <rdf:RDF>
      <cc:Work
         rdf:about="">
        <dc:format>image/svg+xml</dc:format>
        <dc:type
           rdf:resource="http://purl.org/dc/dcmitype/StillImage" />
        <dc:title />
      </cc:Work>
    </rdf:RDF>
  </metadata>
  <defs
     id="defs8" />
  <sodipodi:namedview
     pagecolor="#ffffff"
     bordercolor="#666666"
     borderopacity="1"
     objecttolerance="10"
     gridtolerance="10"
     guidetolerance="10"
     inkscape:pageopacity="0"
     inkscape:pageshadow="2"
     inkscape:window-width="1920"
     inkscape:window-height="1056"
     id="namedview6"
     showgrid="true"
     inkscape:zoom="22.627417"
     inkscape:cx="17.619058"
     inkscape:cy="15.974389"
     inkscape:window-x="0"
     inkscape:window-y="24"
     inkscape:window-maximized="1"
     inkscape:current-layer="svg2">
    <inkscape:grid
       type="xygrid"
       id="grid4138" />
  </sodipodi:namedview>
  <path
     style="color:#000000;font-style:normal;font-variant:normal;font-weight:normal;font-stretch:normal;font-size:medium;line-height:normal;font-family:sans-serif;text-indent:0;text-align:start;text-decoration:none;text-decoration-line:none;text-decoration-style:solid;text-decoration-color:#000000;letter-spacing:normal;word-spacing:normal;text-transform:none;direction:ltr;block-progression:tb;writing-mode:lr-tb;baseline-shift:baseline;text-anchor:start;white-space:normal;clip-rule:nonzero;display:inline;overflow:visible;visibility:visible;opacity:1;isolation:auto;mix-blend-mode:normal;color-interpolation:sRGB;color-interpolation-filters:linearRGB;solid-color:#000000;solid-opacity:1;fill:#61c66c;fill-opacity:1;fill-rule:evenodd;stroke:none;stroke-width:0.98903728;stroke-linecap:butt;stroke-linejoin:round;stroke-miterlimit:4;stroke-dasharray:none;stroke-dashoffset:0;stroke-opacity:1;color-rendering:auto;image-rendering:auto;shape-rendering:auto;text-rendering:auto;enable-background:accumulate"
     d="m 5.664136,1.366256 c -0.4249625,0.01609 -0.9056214,0.147061 -1.1893881,0.487536 -0.0089,0.01052 -0.016429,0.02213 -0.022393,0.03455 -0.094684,0.200964 -0.1278425,0.363705 -0.071018,0.506731 0.056824,0.143026 0.1855259,0.207007 0.2866312,0.246967 0.1011038,0.03996 0.1950591,0.06724 0.2559191,0.10301 0.06086,0.03577 0.088599,0.06123 0.1042877,0.142038 0.01869,0.09626 0.0046,0.147226 -0.017275,0.186185 -0.02187,0.03896 -0.056361,0.07643 -0.1068462,0.09597 -0.078607,0.03042 -0.2149733,0.03052 -0.2149733,0.03052 l -2.5272104,0 C 2.072505,3.19984 2.0000787,3.272273 2.0000015,3.361636 l -1e-7,2.53997 c 7.2e-6,0.181205 0.036814,0.285697 0.087268,0.363543 0.057555,0.07973 0.1267117,0.171896 0.2351907,0.232762 0.1084788,0.06087 0.2505806,0.08281 0.4069128,0.05246 C 2.8687928,6.523231 2.979155,6.44468 3.0473535,6.355228 3.1157125,6.265568 3.1499813,6.17016 3.1785125,6.090347 c 0.028531,-0.07981 0.053389,-0.145321 0.073577,-0.175948 0.019873,-0.03015 0.01556,-0.02834 0.046705,-0.03071 0.029415,-0.0018 0.1058951,0.0163 0.2053757,0.05886 0.2182017,0.192056 0.3486677,0.582454 0.3621272,0.937964 0.00447,0.132278 -0.00738,0.256466 -0.02943,0.363412 l 0.00194,-0.0064 c -0.00745,0.0297 -0.00651,0.0338 -0.00448,0.02368 -7.55e-4,0.0036 -0.00141,0.0072 -0.00193,0.01088 -0.039179,0.305537 -0.1652083,0.602317 -0.349972,0.763293 -0.1280828,0.05268 -0.2085189,0.061 -0.2220089,0.05566 -0.015166,-0.006 -0.035037,-0.02723 -0.065261,-0.103647 C 3.1649355,7.910971 3.1363975,7.799535 3.0703979,7.687324 3.0043979,7.575114 2.8824938,7.462156 2.7108303,7.42884 l 0,6.5e-4 C 2.4830003,7.384984 2.288522,7.46217 2.1772258,7.581105 2.0659296,7.700039 2.0246441,7.840056 2.00384,7.938119 2.001415,7.949049 2.000125,7.960204 2,7.971389 l 0,2.666735 c 7.54e-5,0.08987 0.073284,0.162504 0.1631489,0.161871 L 4.7069937,10.8 C 4.8827342,10.799676 4.9937616,10.76161 5.0737386,10.70917 5.1322986,10.67076 5.2411235,10.567521 5.302008,10.458955 5.362892,10.350388 5.385429,10.20859 5.355111,10.052034 5.3217762,9.880315 5.2089687,9.758431 5.0966323,9.692464 4.9842965,9.626496 4.8725366,9.59794 4.795927,9.5677 4.719315,9.53746 4.69766,9.51758 4.6916386,9.50244 4.6862186,9.48881 4.6932886,9.40902 4.7479406,9.277866 4.9404051,9.061124 5.3302692,8.930591 5.6858876,8.918292 l 0.0013,0 c 0.1307861,-0.0056 0.2542471,0.0066 0.360848,0.02879 0.00654,0.0012 0.01318,0.0021 0.01984,0.0025 0.003,7.5e-4 0.00595,0.0014 0.00896,0.0019 0.3069125,0.0392 0.605052,0.165819 0.7658408,0.349339 0.052766,0.127597 0.061585,0.207435 0.056302,0.220734 -0.00594,0.01496 -0.02821,0.03494 -0.1049273,0.06526 -0.076722,0.03033 -0.188318,0.05935 -0.3007065,0.125403 -0.1123874,0.06605 -0.2251328,0.187801 -0.2584791,0.359574 -0.03035,0.156324 -0.00778,0.298447 0.053104,0.40692 0.060878,0.108473 0.1437586,0.197492 0.2305978,0.242755 0.1095784,0.06693 0.1986722,0.07845 0.365696,0.07717 l 2.5539137,0.0013 c 0.08937,-7.6e-5 0.161792,-0.07378 0.16187,-0.163145 l 0,-2.618109 c -7.3e-5,-0.101474 0.0133,-0.14733 0.05776,-0.194502 0.04637,-0.04919 0.09302,-0.08124 0.232887,-0.05374 l 6.5e-4,6.5e-4 c 0.08129,0.01554 0.106961,0.04317 0.142676,0.10365 0.03571,0.06047 0.06303,0.153712 0.103007,0.254645 0.03998,0.100932 0.104021,0.229845 0.246963,0.286636 0.142942,0.05679 0.305433,0.02393 0.506722,-0.07038 0.01265,-0.0059 0.02448,-0.01345 0.03519,-0.0224 0.286712,-0.238896 0.423335,-0.620445 0.471532,-0.987229 9e-4,-0.007 0.0014,-0.01405 0.0013,-0.02112 0,0.02213 0.0013,0.01187 0.0013,-0.016 l -0.0038,0.03455 c 0.0293,-0.133906 0.04251,-0.282927 0.03711,-0.44083 l 0,-6.5e-4 c -0.0161,-0.425261 -0.148575,-0.905742 -0.487528,-1.189411 -0.01072,-0.009 -0.02255,-0.01648 -0.03519,-0.0224 -0.201289,-0.09431 -0.363763,-0.127211 -0.506721,-0.07038 -0.142957,0.05683 -0.206993,0.185621 -0.246963,0.286635 -0.03997,0.101014 -0.06723,0.194584 -0.103008,0.255286 -0.03577,0.0607 -0.06137,0.08855 -0.142674,0.104288 -0.0967,0.01849 -0.147717,0.004 -0.186822,-0.01792 C 9.685318,6.216101 9.655748,6.177771 9.628468,6.131212 9.600048,6.082712 9.600008,5.917516 9.600008,5.917516 L 9.600135,3.36155 C 9.599999,3.27223 9.527575,3.199806 9.438207,3.199729 l -2.6530825,0 C 6.7172495,3.199605 6.6408598,3.181279 6.5957375,3.137199 6.5487735,3.091319 6.5179925,3.043919 6.5445535,2.906866 6.5602985,2.825586 6.5881485,2.799939 6.6488419,2.764189 6.7095349,2.728439 6.8031377,2.701039 6.9041205,2.661179 7.0051058,2.621319 7.1338104,2.55773 7.1907518,2.414851 7.2476928,2.271973 7.2147168,2.109726 7.1203738,1.908761 7.1144538,1.896111 7.1069288,1.884281 7.0979738,1.873571 6.8599688,1.589775 6.4822257,1.453869 6.1178003,1.405869 c -0.00617,-0.0016 -0.01726,-0.0027 -0.028155,-0.0038 -0.129839,-0.02694 -0.2720122,-0.04101 -0.4248269,-0.03583 l -6.5e-4,0 z"
     id="path4"
     inkscape:connector-curvature="0"
     sodipodi:nodetypes="cccssscsscccccscsscccccccccsssccscccccsscssccccccccscssscccccsccsssccccccccccssscssccccscsssccccccc" />
</svg>

<svg xmlns="http://www.w3.org/2000/svg" width="16" height="16" viewBox="0 0 12.8 12.8">
 <path d="m 5.664 1.366 c -0.425 0.016 -0.906 0.147 -1.189 0.488 -0.009 0.011 -0.016 0.022 -0.022 0.035 -0.095 0.201 -0.128 0.364 -0.071 0.507 0.057 0.143 0.186 0.207 0.287 0.247 0.101 0.04 0.195 0.067 0.256 0.103 0.061 0.036 0.089 0.061 0.104 0.142 0.019 0.096 0.005 0.147 -0.017 0.186 -0.022 0.039 -0.056 0.076 -0.107 0.096 -0.079 0.03 -0.215 0.031 -0.215 0.031 l -2.527 0 c -0.089 0 -0.162 0.073 -0.162 0.162 l 0 2.54 c 0 0.181 0.037 0.286 0.087 0.364 0.058 0.08 0.127 0.172 0.235 0.233 0.108 0.061 0.251 0.083 0.407 0.052 c 0.139 -0.027 0.25 -0.106 0.318 -0.195 0.068 -0.09 0.103 -0.185 0.131 -0.265 c 0.029 -0.08 0.053 -0.145 0.074 -0.176 0.02 -0.03 0.016 -0.028 0.047 -0.031 0.029 -0.002 0.106 0.016 0.205 0.059 0.218 0.192 0.349 0.582 0.362 0.938 0.004 0.132 -0.007 0.256 -0.029 0.363 l 0.002 -0.006 c -0.007 0.03 -0.007 0.034 -0.004 0.024 -0.001 0.004 -0.001 0.007 -0.002 0.011 -0.039 0.306 -0.165 0.602 -0.35 0.763 -0.128 0.053 -0.209 0.061 -0.222 0.056 -0.015 -0.006 -0.035 -0.027 -0.065 -0.104 c -0.03 -0.076 -0.059 -0.188 -0.125 -0.3 -0.066 -0.112 -0.188 -0.225 -0.36 -0.258 l 0 0.001 c -0.228 -0.045 -0.422 0.033 -0.534 0.152 -0.111 0.119 -0.153 0.259 -0.173 0.357 -0.002 0.011 -0.004 0.022 -0.004 0.033 l 0 2.667 c 0 0.09 0.073 0.163 0.163 0.162 l 2.544 0 c 0.176 0 0.287 -0.038 0.367 -0.091 0.059 -0.038 0.167 -0.142 0.228 -0.25 0.061 -0.109 0.083 -0.25 0.053 -0.407 -0.033 -0.172 -0.146 -0.294 -0.258 -0.36 -0.112 -0.066 -0.224 -0.095 -0.301 -0.125 -0.077 -0.03 -0.098 -0.05 -0.104 -0.065 -0.005 -0.014 0.002 -0.093 0.056 -0.225 0.192 -0.217 0.582 -0.347 0.938 -0.36 l 0.001 0 c 0.131 -0.006 0.254 0.007 0.361 0.029 0.007 0.001 0.013 0.002 0.02 0.002 0.003 0.001 0.006 0.001 0.009 0.002 0.307 0.039 0.605 0.166 0.766 0.349 0.053 0.128 0.062 0.207 0.056 0.221 -0.006 0.015 -0.028 0.035 -0.105 0.065 -0.077 0.03 -0.188 0.059 -0.301 0.125 -0.112 0.066 -0.225 0.188 -0.258 0.36 -0.03 0.156 -0.008 0.298 0.053 0.407 0.061 0.108 0.144 0.197 0.231 0.243 0.11 0.067 0.199 0.078 0.366 0.077 l 2.554 0.001 c 0.089 0 0.162 -0.074 0.162 -0.163 l 0 -2.618 c 0 -0.101 0.013 -0.147 0.058 -0.195 0.046 -0.049 0.093 -0.081 0.233 -0.054 l 0.001 0.001 c 0.081 0.016 0.107 0.043 0.143 0.104 0.036 0.06 0.063 0.154 0.103 0.255 0.04 0.101 0.104 0.23 0.247 0.287 0.143 0.057 0.305 0.024 0.507 -0.07 0.013 -0.006 0.024 -0.013 0.035 -0.022 0.287 -0.239 0.423 -0.62 0.472 -0.987 0.001 -0.007 0.001 -0.014 0.001 -0.021 0 0.022 0.001 0.012 0.001 -0.016 l -0.004 0.035 c 0.029 -0.134 0.043 -0.283 0.037 -0.441 l 0 -0.001 c -0.016 -0.425 -0.149 -0.906 -0.488 -1.189 -0.011 -0.009 -0.023 -0.016 -0.035 -0.022 -0.201 -0.094 -0.364 -0.127 -0.507 -0.07 -0.143 0.057 -0.207 0.186 -0.247 0.287 -0.04 0.101 -0.067 0.195 -0.103 0.255 -0.036 0.061 -0.061 0.089 -0.143 0.104 -0.097 0.018 -0.148 0.004 -0.187 -0.018 c -0.039 -0.022 -0.069 -0.06 -0.096 -0.107 -0.028 -0.048 -0.028 -0.214 -0.028 -0.214 l 0 -2.556 c 0 -0.089 -0.073 -0.162 -0.162 -0.162 l -2.653 0 c -0.068 0 -0.144 -0.018 -0.189 -0.063 -0.047 -0.046 -0.078 -0.093 -0.051 -0.23 0.016 -0.081 0.044 -0.107 0.104 -0.143 0.061 -0.036 0.154 -0.063 0.255 -0.103 0.101 -0.04 0.23 -0.103 0.287 -0.246 0.057 -0.143 0.024 -0.305 -0.07 -0.506 -0.006 -0.013 -0.013 -0.024 -0.022 -0.035 -0.238 -0.284 -0.616 -0.42 -0.98 -0.468 c -0.006 -0.002 -0.017 -0.003 -0.028 -0.004 -0.13 -0.027 -0.272 -0.041 -0.425 -0.036 l -0.001 0 z" mix-blend-mode="normal" isolation="auto" white-space="normal" solid-opacity="1" solid-color="#000000" style="visibility:visible;shape-rendering:auto;color-interpolation-filters:linearRGB;fill:#61c66c;opacity:1;image-rendering:auto;fill-opacity:1;stroke:none;display:inline;color:#000;fill-rule:evenodd;color-rendering:auto;color-interpolation:sRGB"/>
</svg>
